paymentMethods/swish.svg

<svg width="128" height="64" viewBox="0 0 128 64" fill="none" xmlns="http://www.w3.org/2000/svg">
<rect width="128" height="64" rx="6" fill="white"/>
<path d="M99.3056 25.9651C100.219 25.9651 100.994 26.0817 101.63 26.3149C102.266 26.5481 102.763 26.7633 103.121 26.9607C103.426 27.1221 103.605 27.3374 103.659 27.6065C103.712 27.8755 103.667 28.1626 103.524 28.4675L103.255 28.9519C103.094 29.2748 102.888 29.4631 102.637 29.5169C102.387 29.5707 102.091 29.5259 101.751 29.3824C101.446 29.2389 101.079 29.0909 100.649 28.9384C100.219 28.7859 99.7176 28.7097 99.1444 28.7097C98.5532 28.7097 98.0964 28.8263 97.774 29.0595C97.4516 29.2927 97.2903 29.6246 97.2903 30.0551C97.2903 30.4318 97.456 30.7367 97.7874 30.97C98.1188 31.2032 98.5398 31.4094 99.0503 31.5888C99.5609 31.7682 100.107 31.9611 100.689 32.1674C101.272 32.3737 101.818 32.6382 102.328 32.9611C102.839 33.284 103.26 33.6966 103.591 34.1989C103.923 34.7012 104.088 35.338 104.088 36.1094C104.088 36.7193 103.968 37.2799 103.726 37.7911C103.484 38.3024 103.135 38.7464 102.678 39.1231C102.221 39.4998 101.67 39.7958 101.025 40.011C100.38 40.2263 99.6639 40.3339 98.8757 40.3339C97.765 40.3339 96.8291 40.1725 96.0677 39.8496C95.3064 39.5267 94.7198 39.2217 94.3078 38.9347C94.0032 38.7553 93.8331 38.5311 93.7972 38.262C93.7614 37.9929 93.842 37.7059 94.0391 37.401L94.3615 36.9166C94.5585 36.6296 94.778 36.4681 95.0198 36.4323C95.2616 36.3964 95.5527 36.4681 95.8931 36.6475C96.2155 36.8269 96.632 37.0287 97.1425 37.253C97.6531 37.4772 98.2577 37.5893 98.9563 37.5893C99.5474 37.5893 100.013 37.4637 100.354 37.2126C100.694 36.9615 100.864 36.6206 100.864 36.1901C100.864 35.8134 100.698 35.5129 100.367 35.2887C100.036 35.0644 99.6146 34.8582 99.1041 34.6698C98.5935 34.4814 98.0472 34.2796 97.465 34.0644C96.8828 33.8491 96.3365 33.58 95.8259 33.2571C95.3154 32.9342 94.8944 32.5216 94.563 32.0194C94.2316 31.5171 94.0659 30.8713 94.0659 30.082C94.0659 29.4183 94.2048 28.8263 94.4824 28.3061C94.7601 27.7858 95.1363 27.3553 95.611 27.0145C96.0857 26.6736 96.641 26.4135 97.2769 26.2341C97.9128 26.0548 98.5891 25.9651 99.3056 25.9651ZM59.3648 25.9651C60.2784 25.9651 61.0531 26.0817 61.689 26.3149C62.325 26.5481 62.8221 26.7633 63.1803 26.9607C63.4848 27.1221 63.664 27.3374 63.7177 27.6065C63.7715 27.8755 63.7267 28.1626 63.5834 28.4675L63.3147 28.9519C63.1534 29.2748 62.9474 29.4631 62.6967 29.5169C62.4459 29.5707 62.1503 29.5259 61.8099 29.3824C61.5054 29.2389 61.1382 29.0909 60.7083 28.9384C60.2784 28.7859 59.7768 28.7097 59.2036 28.7097C58.6124 28.7097 58.1556 28.8263 57.8332 29.0595C57.5107 29.2927 57.3495 29.6246 57.3495 30.0551C57.3495 30.4318 57.5152 30.7367 57.8466 30.97C58.178 31.2032 58.599 31.4094 59.1095 31.5888C59.62 31.7682 60.1664 31.9611 60.7486 32.1674C61.3308 32.3737 61.8771 32.6382 62.3877 32.9611C62.8982 33.284 63.3191 33.6966 63.6505 34.1989C63.9819 34.7012 64.1476 35.338 64.1476 36.1094C64.1476 36.7193 64.0267 37.2799 63.7849 37.7911C63.5431 38.3024 63.1938 38.7464 62.737 39.1231C62.2802 39.4998 61.7293 39.7958 61.0845 40.011C60.4396 40.2263 59.723 40.3339 58.9349 40.3339C57.8242 40.3339 56.8883 40.1725 56.1269 39.8496C55.3656 39.5267 54.779 39.2217 54.3669 38.9347C54.0624 38.7553 53.8922 38.5311 53.8564 38.262C53.8206 37.9929 53.9012 37.7059 54.0982 37.401L54.4207 36.9166C54.6177 36.6296 54.8372 36.4681 55.079 36.4323C55.3208 36.3964 55.6119 36.4681 55.9523 36.6475C56.2747 36.8269 56.6912 37.0287 57.2017 37.253C57.7123 37.4772 58.3168 37.5893 59.0155 37.5893C59.6066 37.5893 60.0723 37.4637 60.4127 37.2126C60.7531 36.9615 60.9232 36.6206 60.9232 36.1901C60.9232 35.8134 60.7575 35.5129 60.4261 35.2887C60.0947 35.0644 59.6738 34.8582 59.1632 34.6698C58.6527 34.4814 58.1064 34.2796 57.5242 34.0644C56.942 33.8491 56.3956 33.58 55.8851 33.2571C55.3746 32.9342 54.9536 32.5216 54.6222 32.0194C54.2908 31.5171 54.1251 30.8713 54.1251 30.082C54.1251 29.4183 54.2639 28.8263 54.5416 28.3061C54.8193 27.7858 55.1954 27.3553 55.6701 27.0145C56.1448 26.6736 56.7002 26.4135 57.3361 26.2341C57.972 26.0548 58.6482 25.9651 59.3648 25.9651ZM108.359 20.9064C109.112 20.9064 109.488 21.2831 109.488 22.0365V27.5795C109.488 27.7589 109.483 27.9159 109.474 28.0504C109.466 28.185 109.452 28.3061 109.434 28.4137C109.416 28.5393 109.407 28.6469 109.407 28.7366H109.461C109.622 28.4137 109.851 28.0863 110.146 27.7545C110.442 27.4226 110.791 27.1221 111.194 26.853C111.597 26.584 112.054 26.3687 112.565 26.2072C113.075 26.0458 113.626 25.9651 114.217 25.9651C115.74 25.9651 116.917 26.3777 117.75 27.2028C118.583 28.028 119 29.3555 119 31.1852V38.8809C119 39.6343 118.624 40.011 117.871 40.011H116.716C115.964 40.011 115.587 39.6343 115.587 38.8809V31.8848C115.587 31.0417 115.444 30.3645 115.158 29.8533C114.871 29.342 114.298 29.0864 113.438 29.0864C112.847 29.0864 112.305 29.203 111.812 29.4362C111.32 29.6694 110.903 29.9878 110.563 30.3914C110.222 30.7951 109.958 31.2749 109.77 31.831C109.582 32.3871 109.488 32.988 109.488 33.6338V38.8809C109.488 39.6343 109.112 40.011 108.359 40.011H107.204C106.452 40.011 106.075 39.6343 106.075 38.8809V22.0365C106.075 21.2831 106.452 20.9064 107.204 20.9064H108.359ZM90.5066 26.288C91.241 26.288 91.6082 26.6647 91.6082 27.4181V38.8809C91.6082 39.6343 91.241 40.011 90.5066 40.011H89.3243C88.5898 40.011 88.2226 39.6343 88.2226 38.8809V27.4181C88.2226 26.6647 88.5898 26.288 89.3243 26.288H90.5066ZM67.7076 26.288C68.3883 26.288 68.7914 26.6198 68.9168 27.2836L71.1201 35.3021C71.1559 35.4995 71.1873 35.6788 71.2142 35.8403C71.241 36.0017 71.2724 36.1542 71.3082 36.2977C71.344 36.4592 71.3709 36.6117 71.3888 36.7552H71.4426C71.4605 36.6117 71.4873 36.4592 71.5232 36.2977C71.559 36.1542 71.5903 36.0017 71.6172 35.8403C71.6441 35.6788 71.6844 35.4995 71.7381 35.3021L74.049 27.2836C74.1743 26.6378 74.5864 26.3149 75.285 26.3149H76.306C76.9688 26.3149 77.3808 26.6378 77.5421 27.2836L79.826 35.3021C79.8798 35.4995 79.9201 35.6788 79.9469 35.8403C79.9738 36.0017 80.0051 36.1542 80.041 36.2977C80.0768 36.4592 80.1037 36.6117 80.1216 36.7552H80.1753C80.1932 36.6117 80.2201 36.4592 80.2559 36.2977C80.2918 36.1542 80.3231 36.0017 80.35 35.8403C80.3768 35.6788 80.4172 35.4995 80.4709 35.3021L82.6474 27.2836C82.8086 26.6198 83.2206 26.288 83.8834 26.288H85.1194C85.5314 26.288 85.818 26.4046 85.9793 26.6378C86.1405 26.871 86.1673 27.1759 86.0599 27.5526L82.5399 39.0693C82.3608 39.6971 81.9398 40.011 81.277 40.011H79.4767C78.796 40.011 78.375 39.6881 78.2138 39.0423L76.1448 32.1808C76.0911 32.0014 76.0463 31.822 76.0105 31.6427C75.9746 31.4633 75.9388 31.3018 75.903 31.1583C75.8672 30.9969 75.8403 30.8444 75.8224 30.7009H75.7686C75.7328 30.8444 75.697 30.9969 75.6612 31.1583C75.6253 31.3018 75.5895 31.4633 75.5537 31.6427C75.5178 31.822 75.4731 32.0014 75.4193 32.1808L73.3503 39.0423C73.1891 39.6881 72.7771 40.011 72.1143 40.011H70.2603C69.6154 40.011 69.2034 39.6971 69.0243 39.0693L65.4774 27.5526C65.3699 27.1759 65.4013 26.871 65.5715 26.6378C65.7416 26.4046 66.0238 26.288 66.4179 26.288H67.7076Z" fill="#4A4A49"/>
<path fill-rule="evenodd" clip-rule="evenodd" d="M19.1021 48.0308C26.2375 51.4434 35.0437 49.7545 40.3638 43.4155C46.6696 35.9022 45.6902 24.7013 38.1762 18.3976L33.1811 24.3494C39.0513 29.2742 39.8165 38.0249 34.8901 43.8947C30.962 48.5751 24.4945 50.1378 19.1021 48.0308" fill="url(#paint0_linear_10_13348)"/>
<path fill-rule="evenodd" clip-rule="evenodd" d="M19.1021 48.0308C26.2375 51.4434 35.0437 49.7545 40.3638 43.4155C41.0154 42.6392 41.5889 41.8235 42.0858 40.9779C42.9259 35.757 41.0783 30.2388 36.7322 26.5927C35.6279 25.6663 34.4326 24.92 33.1818 24.3501C39.0514 29.2749 39.8162 38.0251 34.8901 43.8947C30.962 48.575 24.4945 50.1378 19.1021 48.0308Z" fill="url(#paint1_linear_10_13348)"/>
<path fill-rule="evenodd" clip-rule="evenodd" d="M34.4183 15.9692C27.2828 12.5565 18.4766 14.2454 13.1565 20.5844C6.85072 28.0978 7.83014 39.2987 15.3441 45.6024L20.3393 39.6506C14.469 34.7258 13.7039 25.9751 18.6302 20.1052C22.5583 15.4249 29.0258 13.8621 34.4183 15.9692" fill="url(#paint2_linear_10_13348)"/>
<path fill-rule="evenodd" clip-rule="evenodd" d="M34.4182 15.9692C27.2827 12.5565 18.4766 14.2454 13.1564 20.5844C12.5049 21.3607 11.9313 22.1765 11.4345 23.0221C10.5943 28.2429 12.442 33.7611 16.7881 37.4072C17.8923 38.3336 19.0877 39.0799 20.3384 39.6498C14.4689 34.725 13.704 25.9748 18.6302 20.1052C22.5583 15.4249 29.0257 13.8621 34.4182 15.9692" fill="url(#paint3_linear_10_13348)"/>
<defs>
<linearGradient id="paint0_linear_10_13348" x1="39.6439" y1="37.1012" x2="32.0977" y2="22.0688" gradientUnits="userSpaceOnUse">
<stop stop-color="#EF2131"/>
<stop offset="1" stop-color="#FECF2C"/>
</linearGradient>
<linearGradient id="paint1_linear_10_13348" x1="32.7369" y1="24.3501" x2="19.5084" y2="47.2506" gradientUnits="userSpaceOnUse">
<stop stop-color="#FBC52C"/>
<stop offset="0.263921" stop-color="#F87130"/>
<stop offset="0.560797" stop-color="#EF52E2"/>
<stop offset="1" stop-color="#661EEC"/>
</linearGradient>
<linearGradient id="paint2_linear_10_13348" x1="14.2283" y1="27.104" x2="21.4609" y2="41.8134" gradientUnits="userSpaceOnUse">
<stop stop-color="#78F6D8"/>
<stop offset="0.265705" stop-color="#77D1F6"/>
<stop offset="0.554471" stop-color="#70A4F3"/>
<stop offset="1" stop-color="#661EEC"/>
</linearGradient>
<linearGradient id="paint3_linear_10_13348" x1="21.0751" y1="39.6498" x2="34.2004" y2="16.8277" gradientUnits="userSpaceOnUse">
<stop stop-color="#536EED"/>
<stop offset="0.246658" stop-color="#54C3EC"/>
<stop offset="0.5642" stop-color="#64D769"/>
<stop offset="1" stop-color="#FECF2C"/>
</linearGradient>
</defs>
</svg>

<svg xmlns="http://www.w3.org/2000/svg" width="128" height="64" fill="none"><rect width="128" height="64" fill="#fff" rx="6"/><path fill="#4A4A49" d="M99.306 25.965c.913 0 1.688.117 2.324.35.636.233 1.133.448 1.491.646.305.161.484.376.538.646.053.268.008.556-.135.86l-.269.485c-.161.323-.367.511-.618.565-.25.054-.546.009-.886-.135a12.202 12.202 0 0 0-1.102-.444c-.43-.152-.931-.228-1.505-.228-.59 0-1.048.116-1.37.35-.322.233-.484.565-.484.995 0 .377.166.682.497.915.332.233.753.44 1.263.619l1.639.578c.583.207 1.129.471 1.639.794a4.15 4.15 0 0 1 1.263 1.238c.332.502.497 1.139.497 1.91 0 .61-.12 1.17-.362 1.682a3.843 3.843 0 0 1-1.048 1.332 5.112 5.112 0 0 1-1.653.888c-.645.215-1.361.323-2.15.323-1.11 0-2.046-.162-2.807-.484-.762-.323-1.348-.628-1.76-.915-.305-.18-.475-.404-.51-.673-.037-.27.044-.556.241-.861l.323-.484c.197-.287.416-.449.658-.485.242-.036.533.036.873.215.323.18.739.382 1.25.606.51.224 1.115.336 1.813.336.591 0 1.057-.125 1.398-.376.34-.252.51-.592.51-1.023 0-.377-.166-.677-.497-.901-.331-.225-.752-.43-1.263-.62l-1.639-.605a8.706 8.706 0 0 1-1.64-.807 4.16 4.16 0 0 1-1.262-1.238c-.331-.502-.497-1.148-.497-1.937 0-.664.139-1.256.416-1.776a3.73 3.73 0 0 1 1.129-1.291 5.291 5.291 0 0 1 1.666-.78 7.444 7.444 0 0 1 2.029-.27Zm-39.941 0c.913 0 1.688.117 2.324.35.636.233 1.133.448 1.491.646.305.161.484.376.538.646.053.268.009.556-.135.86l-.268.485c-.162.323-.368.511-.618.565-.251.054-.547.009-.887-.135a12.141 12.141 0 0 0-1.102-.444c-.43-.152-.931-.228-1.504-.228-.592 0-1.048.116-1.37.35-.323.233-.485.565-.485.995 0 .377.166.682.498.915.331.233.752.44 1.262.619l1.64.578c.582.207 1.128.471 1.639.794.51.323.931.736 1.263 1.238.33.502.497 1.139.497 1.91 0 .61-.121 1.17-.363 1.682a3.843 3.843 0 0 1-1.048 1.332 5.11 5.11 0 0 1-1.653.888c-.644.215-1.361.323-2.15.323-1.11 0-2.046-.162-2.807-.484-.761-.323-1.348-.628-1.76-.915-.305-.18-.475-.404-.51-.673-.036-.27.044-.556.241-.861l.323-.484c.197-.287.416-.449.658-.485.242-.036.533.036.873.215.323.18.74.382 1.25.606.51.224 1.115.336 1.814.336.59 0 1.056-.125 1.397-.376.34-.252.51-.592.51-1.023 0-.377-.166-.677-.497-.901-.331-.225-.752-.43-1.263-.62l-1.639-.605a8.703 8.703 0 0 1-1.639-.807 4.16 4.16 0 0 1-1.263-1.238c-.331-.502-.497-1.148-.497-1.937 0-.664.139-1.256.417-1.776a3.73 3.73 0 0 1 1.128-1.291 5.292 5.292 0 0 1 1.666-.78 7.444 7.444 0 0 1 2.029-.27Zm48.994-5.059c.753 0 1.129.377 1.129 1.13v5.543c0 .18-.005.337-.014.471a3.446 3.446 0 0 1-.04.364 2.327 2.327 0 0 0-.027.323h.054c.161-.323.39-.65.685-.982a5.367 5.367 0 0 1 2.419-1.547 5.449 5.449 0 0 1 1.652-.243c1.523 0 2.7.413 3.533 1.238.833.825 1.25 2.152 1.25 3.982v7.696c0 .753-.376 1.13-1.129 1.13h-1.155c-.752 0-1.129-.377-1.129-1.13v-6.996c0-.843-.143-1.52-.429-2.032-.287-.511-.86-.767-1.72-.767-.591 0-1.133.117-1.626.35a3.662 3.662 0 0 0-1.249.955 4.374 4.374 0 0 0-.793 1.44 5.595 5.595 0 0 0-.282 1.803v5.247c0 .753-.376 1.13-1.129 1.13h-1.155c-.752 0-1.129-.377-1.129-1.13V22.036c0-.753.377-1.13 1.129-1.13h1.155Zm-17.852 5.382c.734 0 1.101.377 1.101 1.13v11.463c0 .753-.367 1.13-1.101 1.13h-1.183c-.734 0-1.101-.377-1.101-1.13V27.418c0-.753.367-1.13 1.101-1.13h1.183Zm-22.8 0c.681 0 1.084.332 1.21.996l2.203 8.018c.036.197.067.377.094.538.027.162.058.314.094.458.036.161.063.314.08.457h.055c.017-.143.044-.296.08-.457.036-.144.067-.296.094-.458.027-.161.067-.34.121-.538l2.311-8.018c.125-.646.537-.97 1.236-.97h1.021c.663 0 1.075.324 1.236.97l2.284 8.018c.054.197.094.377.12.538.028.162.06.314.095.458.036.161.063.314.08.457h.054c.018-.143.045-.296.08-.457a5.85 5.85 0 0 0 .095-.458c.027-.161.067-.34.12-.538l2.177-8.018c.162-.664.574-.996 1.236-.996h1.236c.412 0 .699.117.86.35.162.233.188.538.08.915l-3.52 11.516c-.178.628-.6.942-1.262.942h-1.8c-.681 0-1.102-.323-1.263-.969l-2.07-6.861a5.915 5.915 0 0 1-.134-.538c-.035-.18-.071-.341-.107-.485a4.949 4.949 0 0 1-.08-.457h-.054a17.97 17.97 0 0 0-.108.457c-.036.144-.072.305-.107.485-.036.179-.08.358-.135.538l-2.069 6.861c-.16.646-.573.969-1.236.969H70.26c-.645 0-1.057-.314-1.236-.942l-3.547-11.516c-.107-.377-.076-.682.094-.915.17-.233.453-.35.847-.35h1.29Z"/><path fill="url(#a)" fill-rule="evenodd" d="M19.102 48.03c7.136 3.413 15.942 1.724 21.262-4.614 6.306-7.514 5.326-18.715-2.188-25.018l-4.995 5.951c5.87 4.925 6.636 13.676 1.71 19.546-3.929 4.68-10.396 6.243-15.789 4.136" clip-rule="evenodd"/><path fill="url(#b)" fill-rule="evenodd" d="M19.102 48.03c7.136 3.413 15.942 1.724 21.262-4.614a17.88 17.88 0 0 0 1.722-2.438c.84-5.221-1.008-10.74-5.354-14.385a15.552 15.552 0 0 0-3.55-2.243c5.87 4.925 6.634 13.675 1.708 19.545-3.928 4.68-10.396 6.243-15.788 4.136Z" clip-rule="evenodd"/><path fill="url(#c)" fill-rule="evenodd" d="M34.418 15.97c-7.135-3.414-15.941-1.725-21.261 4.614C6.85 28.098 7.83 39.3 15.344 45.602l4.995-5.951c-5.87-4.925-6.635-13.676-1.709-19.546 3.928-4.68 10.396-6.243 15.788-4.136" clip-rule="evenodd"/><path fill="url(#d)" fill-rule="evenodd" d="M34.418 15.97c-7.135-3.414-15.941-1.725-21.262 4.614a17.88 17.88 0 0 0-1.722 2.438c-.84 5.22 1.008 10.74 5.354 14.385 1.104.927 2.3 1.673 3.55 2.243-5.87-4.925-6.634-13.675-1.708-19.545 3.928-4.68 10.396-6.243 15.788-4.136" clip-rule="evenodd"/><defs><linearGradient id="a" x1="39.644" x2="32.098" y1="37.101" y2="22.069" gradientUnits="userSpaceOnUse"><stop stop-color="#EF2131"/><stop offset="1" stop-color="#FECF2C"/></linearGradient><linearGradient id="b" x1="32.737" x2="19.508" y1="24.35" y2="47.251" gradientUnits="userSpaceOnUse"><stop stop-color="#FBC52C"/><stop offset=".264" stop-color="#F87130"/><stop offset=".561" stop-color="#EF52E2"/><stop offset="1" stop-color="#661EEC"/></linearGradient><linearGradient id="c" x1="14.228" x2="21.461" y1="27.104" y2="41.813" gradientUnits="userSpaceOnUse"><stop stop-color="#78F6D8"/><stop offset=".266" stop-color="#77D1F6"/><stop offset=".554" stop-color="#70A4F3"/><stop offset="1" stop-color="#661EEC"/></linearGradient><linearGradient id="d" x1="21.075" x2="34.2" y1="39.65" y2="16.828" gradientUnits="userSpaceOnUse"><stop stop-color="#536EED"/><stop offset=".247" stop-color="#54C3EC"/><stop offset=".564" stop-color="#64D769"/><stop offset="1" stop-color="#FECF2C"/></linearGradient></defs></svg>
